X:1
T:O chiome erranti, chiome
T:Constantijn Huygens
T:O chiome erranti, chiome
C:Constantijn Huygens
%%score 1 2 { ( 3 4 ) | 5 }
L:1/8
Q:1/4=65
M:4/4
K:D
V:1 treble nm="Soprano" snm="S"
V:2 treble transpose=-12 nm="Viola da Gamba" snm="V.Gam."
V:3 treble nm="Harpsichord" snm="Hpschd."
V:4 treble 
V:5 bass 
V:1
 z F A3 ABc | d2 AA BEEA | F2 FB ddcB | BFFG A2 AA | B2 c2 z4 :: d6 AA | BB A2 F2 FF | %7
w: O chio- me er- ran- ti,|chio- me do- ra- te in- an- nel-|la- te, O co- me bel- le o|co- me e vo- la- te e scher-|za- te:|Ben voi scher-|zan- do er- ra- te, E son|
 A2 AA B2 E2 | A6 GF | EE e4 cB | AEFG AF E2 | D8 || d6 AA | BB A2 F2 FF | A2 AA B2 E2 | A6 GF | %16
w: dol- ci gl'er- ro- ri,|Ma non er-|ra- te, ma non er-|ra- te in al- lac- cian- do i co-|ri.|Ben voi scher-|zan- do er- ra- te, E son|dol- ci gl'er- ro- ri,|Ma non er-|
 EE e4 cB | AEFG AF E2 | D8 |] %19
w: ra- te, ma non er-|ra- te in al- lac- cian- do i co-|ri.|
V:2
 d4 f2 eA | d4 G2 A2 | B4 b2 ^a2 | b4 f2 cd | B2 A2 z4 :: d8 | G2 A2 B4 | c2 BA ^G2 A2- | A8 | %9
 A4 a2 ^g2 | a4 A4 | d8 || d8 | G2 A2 B4 | =c2 BA ^G2 A2 | A8 | A4 a2 ^g2 | a4 A4 | d8 |] %19
V:3
 z2 z F A3 A | Bc d2 BGAA | F2 F2 [DFB]2 [CF^A]2 | [B,DFB]2 [A,DF]2 [CFA]2 [CE][DF] | %4
 A^G A2 A=GFE :: [FAd]4 [DFA]2 [=CFA]2 | [B,DGB]2 [CFA]2 [DF]2 [^DF]2 | A2 A2 E2 E2 | %8
 [EAc]4 [CEA]4 | E2 [Ac]2 B4 | [EA]4 [EA]2 AG | [DFA]8 || [DFB]4 [CFA]4 | [B,DG]4 [B,DF]4 | %14
 [=CEA]4 [E^GB]2 [EA=c]2 | [EA!courtesy!^c]4 [CEA]4 | E2 [Ac]2 B4 | [EA]4 [EA]2 AG | GF/G/ FE F4 |] %19
V:4
 z2 z D F2 CC | DE F2 E2 [CE]2 | [B,D]2 [B,D]2 D2 C2 | x8 | [B,E]2 [CE]2 C4 :: x8 | x8 | %7
 E2 DC B,2 A,2 | x8 | C2 E2 E4 | C2 D4 [CE]2 | x8 || x8 | x8 | x8 | x8 | C2 E2 E4 | C2 D4 [CE]2 | %18
 [A,D]8 |] %19
V:5
 D,4 F,2 E,A,, | D,4 G,,2 A,,2 | B,,4 B,2 ^A,2 | B,4 F,2 C,D, | B,,2 A,,2 z4 :: D,8 | %6
 G,,2 A,,2 B,,4 | C,2 B,,A,, ^G,,2 A,,2- | A,,8 | A,,4 A,2 ^G,2 | A,4 A,,4 | D,8 || D,8 | %13
 G,,2 A,,2 B,,4 | =C,2 B,,A,, ^G,,2 A,,2 | A,,8 | A,,4 A,2 ^G,2 | A,4 A,,4 | D,8 |] %19

